icons/svg/comment-multiple.svg

<svg width="24" height="24" viewBox="0 0 24 24" fill="none" xmlns="http://www.w3.org/2000/svg">
<path d="M6.43509 17.7346H7.18509C7.18509 17.3204 6.8493 16.9846 6.43509 16.9846V17.7346ZM7.27369 21.1191L7.78159 21.6709L7.78159 21.6709L7.27369 21.1191ZM10.951 17.7346V16.9846C10.7628 16.9846 10.5815 17.0554 10.443 17.1828L10.951 17.7346ZM3.73474 8.75998C3.73474 7.51734 4.7421 6.50998 5.98474 6.50998V5.00998C3.91367 5.00998 2.23474 6.68891 2.23474 8.75998H3.73474ZM3.73474 14.7346V8.75998H2.23474V14.7346H3.73474ZM5.98474 16.9846C4.7421 16.9846 3.73474 15.9773 3.73474 14.7346H2.23474C2.23474 16.8057 3.91368 18.4846 5.98474 18.4846V16.9846ZM6.4163 16.9846H5.98474V18.4846H6.4163V16.9846ZM6.43509 16.9846H6.4163V18.4846H6.43509V16.9846ZM7.18509 20.7512V17.7346H5.68509V20.7512H7.18509ZM6.76579 20.5672C6.92602 20.4198 7.18509 20.5334 7.18509 20.7512H5.68509C5.68509 21.84 6.98044 22.4083 7.78159 21.6709L6.76579 20.5672ZM10.443 17.1828L6.76579 20.5672L7.78159 21.6709L11.4589 18.2865L10.443 17.1828ZM15.004 16.9846H10.951V18.4846H15.004V16.9846ZM17.254 14.7346C17.254 15.9773 16.2467 16.9846 15.004 16.9846V18.4846C17.0751 18.4846 18.754 16.8057 18.754 14.7346H17.254ZM17.254 8.75998V14.7346H18.754V8.75998H17.254ZM15.004 6.50998C16.2467 6.50998 17.254 7.51734 17.254 8.75998H18.754C18.754 6.68891 17.0751 5.00998 15.004 5.00998V6.50998ZM5.98474 6.50998H15.004V5.00998H5.98474V6.50998Z" fill="currentColor"/>
<path d="M13.0153 3.49878C14.4278 3.49878 15.442 3.49936 16.2382 3.56441C17.0256 3.62874 17.5333 3.75237 17.9447 3.962C18.7444 4.36946 19.3946 5.01963 19.802 5.81932C20.0117 6.23075 20.1353 6.73848 20.1996 7.52586C20.2647 8.322 20.2653 9.33627 20.2653 10.7488V14.7234C21.0937 14.7234 21.7653 14.0519 21.7653 13.2234V10.7152C21.7653 9.34349 21.7653 8.26806 21.6946 7.40371C21.6227 6.52357 21.4739 5.79646 21.1385 5.13833C20.5873 4.0564 19.7076 3.17676 18.6257 2.62549C17.9676 2.29016 17.2405 2.1413 16.3603 2.06939C15.496 1.99877 14.4205 1.99877 13.0488 1.99878L7.49596 1.99878C6.66753 1.99878 5.99596 2.67035 5.99596 3.49878H13.0153Z" fill="currentColor"/>
</svg>

<svg xmlns="http://www.w3.org/2000/svg" width="24" height="24" fill="none" viewBox="0 0 24 24"><path fill="currentColor" d="M6.435 17.735h.75a.75.75 0 0 0-.75-.75zm.839 3.384.508.552zm3.677-3.384v-.75a.75.75 0 0 0-.508.198zM3.735 8.76a2.25 2.25 0 0 1 2.25-2.25v-1.5a3.75 3.75 0 0 0-3.75 3.75zm0 5.975V8.76h-1.5v5.975zm2.25 2.25a2.25 2.25 0 0 1-2.25-2.25h-1.5a3.75 3.75 0 0 0 3.75 3.75zm.431 0h-.431v1.5h.431zm.02 0h-.02v1.5h.02zm.75 3.766v-3.016h-1.5v3.016zm-.42-.184a.25.25 0 0 1 .42.184h-1.5c0 1.089 1.294 1.657 2.096.92zm3.677-3.384-3.677 3.384 1.016 1.104 3.677-3.384zm4.561-.198h-4.053v1.5h4.053zm2.25-2.25a2.25 2.25 0 0 1-2.25 2.25v1.5a3.75 3.75 0 0 0 3.75-3.75zm0-5.975v5.975h1.5V8.76zm-2.25-2.25a2.25 2.25 0 0 1 2.25 2.25h1.5a3.75 3.75 0 0 0-3.75-3.75zm-9.02 0h9.02v-1.5h-9.02z"/><path fill="currentColor" d="M13.015 3.499c1.413 0 2.427 0 3.223.065.788.065 1.295.188 1.707.398a4.25 4.25 0 0 1 1.857 1.857c.21.412.333.92.398 1.707.065.796.065 1.81.065 3.223v3.974a1.5 1.5 0 0 0 1.5-1.5v-2.508c0-1.372 0-2.447-.07-3.311-.072-.88-.221-1.608-.556-2.266a5.75 5.75 0 0 0-2.513-2.513c-.658-.335-1.386-.484-2.266-.556C15.496 2 14.42 2 13.05 2H7.496a1.5 1.5 0 0 0-1.5 1.5z"/></svg>
